flaticon/real-estate/house-4.svg

<svg xmlns="http://www.w3.org/2000/svg" width="32" height="32" viewBox="0 0 24 24">
    <path d="M 22.914062 8.847656 L 13.71875 0.691406 C 12.757812 -0.230469 11.242188 -0.230469 10.28125 0.691406 L 7.203125 3.488281 L 7.203125 2.410156 L 7.601562 2.410156 C 7.839844 2.410156 8 2.25 8 2.007812 L 8 0.410156 C 8 0.171875 7.839844 0.0117188 7.601562 0.0117188 L 2.804688 0.0117188 C 2.5625 0.0117188 2.402344 0.171875 2.402344 0.410156 L 2.402344 2.007812 C 2.402344 2.25 2.5625 2.410156 2.804688 2.410156 L 3.203125 2.410156 L 3.203125 7.007812 L 1.085938 8.847656 C 0.804688 9.125 0.726562 9.527344 0.84375 9.847656 C 0.964844 10.164062 1.324219 10.40625 1.683594 10.40625 L 3.203125 10.40625 L 3.203125 21.601562 L 2.804688 21.601562 C 2.5625 21.601562 2.402344 21.761719 2.402344 22 L 2.402344 23.601562 C 2.402344 23.839844 2.5625 24 2.804688 24 L 21.195312 24 C 21.4375 24 21.597656 23.839844 21.597656 23.558594 L 21.597656 21.960938 C 21.597656 21.722656 21.4375 21.5625 21.195312 21.5625 L 20.796875 21.5625 L 20.796875 10.367188 L 22.316406 10.367188 C 22.714844 10.367188 23.035156 10.164062 23.15625 9.804688 C 23.273438 9.484375 23.195312 9.085938 22.914062 8.847656 Z M 22.394531 9.566406 C 22.355469 9.605469 22.316406 9.605469 22.316406 9.605469 L 20.394531 9.605469 C 20.15625 9.605469 19.996094 9.765625 19.996094 10.003906 L 19.996094 22 C 19.996094 22.242188 20.15625 22.402344 20.394531 22.402344 L 20.796875 22.402344 L 20.796875 23.199219 L 3.203125 23.199219 L 3.203125 22.402344 L 3.601562 22.402344 C 3.84375 22.402344 4.003906 22.242188 4.003906 22 L 4.003906 10.003906 C 4.003906 9.765625 3.84375 9.605469 3.601562 9.605469 L 1.683594 9.605469 C 1.644531 9.605469 1.644531 9.605469 1.605469 9.566406 C 1.605469 9.527344 1.605469 9.484375 1.644531 9.445312 L 3.882812 7.527344 C 3.964844 7.445312 4.003906 7.328125 4.003906 7.207031 L 4.003906 2.007812 C 4.003906 1.769531 3.84375 1.609375 3.601562 1.609375 L 3.203125 1.609375 L 3.203125 0.808594 L 7.203125 0.808594 L 7.203125 1.609375 L 6.800781 1.609375 C 6.5625 1.609375 6.402344 1.769531 6.402344 2.007812 L 6.402344 4.40625 C 6.402344 4.566406 6.480469 4.726562 6.640625 4.847656 C 6.800781 4.886719 6.960938 4.886719 7.082031 4.769531 L 10.839844 1.328125 C 11.480469 0.691406 12.480469 0.691406 13.160156 1.328125 L 22.355469 9.484375 C 22.394531 9.484375 22.4375 9.527344 22.394531 9.566406 Z M 22.394531 9.566406"/>
    <path d="M 14.277344 9.644531 C 13.320312 9.644531 12.398438 10.164062 11.839844 11.046875 C 11.28125 10.164062 10.402344 9.644531 9.441406 9.644531 C 8.480469 9.644531 7.640625 10.046875 6.800781 10.925781 C 5.84375 11.925781 5.441406 14.242188 7.160156 15.964844 C 7.960938 16.761719 11.558594 20.242188 11.601562 20.28125 L 11.878906 20.523438 L 12.121094 20.28125 C 12.160156 20.242188 15.796875 16.722656 16.558594 15.964844 C 18.277344 14.285156 17.878906 11.925781 16.917969 10.925781 C 16.117188 10.085938 15.238281 9.644531 14.277344 9.644531 Z M 16.039062 15.402344 C 15.398438 16.042969 12.757812 18.601562 11.878906 19.441406 C 11.039062 18.601562 8.402344 16.042969 7.761719 15.402344 C 6.402344 14.003906 6.722656 12.203125 7.441406 11.445312 C 8.082031 10.765625 8.761719 10.40625 9.480469 10.40625 C 10.519531 10.40625 11.199219 11.246094 11.519531 12.046875 L 11.878906 13.003906 L 12.238281 12.046875 C 12.558594 11.246094 13.28125 10.40625 14.320312 10.40625 C 15.039062 10.40625 15.71875 10.726562 16.359375 11.445312 C 17.117188 12.246094 17.398438 14.042969 16.039062 15.402344 Z M 16.039062 15.402344"/>
</svg>

<svg xmlns="http://www.w3.org/2000/svg" width="32" height="32" viewBox="0 0 24 24">
    <path d="M22.914 8.848L13.72.69a2.482 2.482 0 0 0-3.438 0L7.203 3.488V2.41h.399c.238 0 .398-.16.398-.402V.41c0-.238-.16-.398-.398-.398H2.805c-.243 0-.403.16-.403.398v1.598c0 .242.16.402.403.402h.398v4.598l-2.117 1.84a.962.962 0 0 0-.242 1c.12.316.48.558.84.558h1.52v11.196h-.4c-.241 0-.402.16-.402.398v1.602c0 .238.16.398.403.398h18.39c.242 0 .403-.16.403-.441V21.96c0-.238-.16-.398-.403-.398h-.398V10.367h1.52c.398 0 .718-.203.84-.562a.875.875 0 0 0-.243-.957zm-.52.718c-.039.04-.078.04-.078.04h-1.921c-.239 0-.399.16-.399.398V22c0 .242.16.402.399.402h.402v.797H3.203v-.797h.399c.242 0 .402-.16.402-.402V10.004c0-.238-.16-.399-.402-.399H1.684c-.04 0-.04 0-.079-.039 0-.039 0-.082.04-.12l2.238-1.919a.449.449 0 0 0 .12-.32v-5.2c0-.237-.16-.398-.401-.398h-.399v-.8h4v.8h-.402c-.239 0-.399.16-.399.399v2.398c0 .16.078.32.239.442.16.039.32.039.441-.078l3.758-3.442c.64-.637 1.64-.637 2.32 0l9.195 8.156c.04 0 .082.043.04.082zm0 0"/>
    <path d="M14.277 9.645c-.957 0-1.879.52-2.437 1.402-.559-.883-1.438-1.402-2.399-1.402-.96 0-1.8.402-2.64 1.28-.957 1-1.36 3.317.36 5.04.8.797 4.398 4.277 4.44 4.316l.278.242.242-.242c.04-.039 3.676-3.558 4.438-4.316 1.718-1.68 1.32-4.04.359-5.04-.8-.84-1.68-1.28-2.64-1.28zm1.762 5.757c-.64.641-3.281 3.2-4.16 4.04-.84-.84-3.477-3.399-4.117-4.04-1.36-1.398-1.04-3.199-.32-3.957.64-.68 1.32-1.039 2.038-1.039 1.04 0 1.72.84 2.04 1.64l.359.958.36-.957c.32-.8 1.042-1.64 2.081-1.64.72 0 1.399.32 2.04 1.038.757.801 1.038 2.598-.32 3.957zm0 0"/>
</svg>
